X:1
T:Callam Shiarghlas
M:C
L:1/8
R:March
S:Surenne - Dance Music of Scotland, pgs. 124-125  (1852)
Z:AK/Fiddler's Companion
K:F
a/g/ | f>F (B/A/G/F/) (E<G) Ga/g/ | f>FA>c f2 (g/f/e/d/) | c>F (B/A/G/F/) (E<G)G>A | DE/F/ CD/E/ F3a/g/ |
f>F (B/A/G/F/) (E<G) Ga/g/ | f>FA>c f2 (g/f/e/d/) | c>F (B/A/G/F/) (E<G)G>A | DE/F/ CD/E/ F3 ||
c | f>ga>f (g/f/e/d/) c>c | f>g (a/g/a/b/ g2 c>c | (f/e/f/g/) (f/g/a/b/) (a<d)d>a | g>d (e/f/g/e/) f3c |
f>ga>f (g/f/e/d/) c>c | f>g (a/g/a/b/) g2 c>c | (f/e/f/g/) (f/g/a/b/) (a<d)d>a | g>d (e/f/g/e/) f3 ||

